communes/5149.svg

<?xml version="1.0" encoding="UTF-8" standalone="no"?>
<svg
   xmlns:dc="http://purl.org/dc/elements/1.1/"
   xmlns:cc="http://creativecommons.org/ns#"
   xmlns:rdf="http://www.w3.org/1999/02/22-rdf-syntax-ns#"
   xmlns:svg="http://www.w3.org/2000/svg"
   xmlns="http://www.w3.org/2000/svg"
   xmlns:xlink="http://www.w3.org/1999/xlink"
   xmlns:sodipodi="http://sodipodi.sourceforge.net/DTD/sodipodi-0.dtd"
   xmlns:inkscape="http://www.inkscape.org/namespaces/inkscape"
   height="763"
   width="603"
   version="1.0"
   id="svg20"
   sodipodi:version="0.32"
   inkscape:version="0.46"
   sodipodi:docname="Bedigliora-coat_of_arms.svg"
   sodipodi:docbase="C:\Documents and Settings\Steve\Bureau\Blason Villages Suisse pour Wikipédia (par Delta-9)"
   inkscape:output_extension="org.inkscape.output.svg.inkscape">
  <metadata
     id="metadata31">
    <rdf:RDF>
      <cc:Work
         rdf:about="">
        <dc:format>image/svg+xml</dc:format>
        <dc:type
           rdf:resource="http://purl.org/dc/dcmitype/StillImage" />
        <dc:date>07-AUG-2006</dc:date>
        <dc:creator>
          <cc:Agent>
            <dc:title>Jérôme BLUM (wagner51)</dc:title>
          </cc:Agent>
        </dc:creator>
        <cc:license
           rdf:resource="http://creativecommons.org/licenses/GPL/2.0/" />
        <dc:coverage />
        <dc:description>Gabarit pour le Projet:Blasons de WIkipédia</dc:description>
        <dc:subject>
          <rdf:Bag>
            <rdf:li>blason suisse modèle gabarit projet blasons</rdf:li>
          </rdf:Bag>
        </dc:subject>
        <dc:language>fr</dc:language>
        <dc:title>Gabrit d'un blason suisse</dc:title>
      </cc:Work>
      <cc:License
         rdf:about="http://creativecommons.org/licenses/GPL/2.0/">
        <cc:permits
           rdf:resource="http://web.resource.org/cc/Reproduction" />
        <cc:permits
           rdf:resource="http://web.resource.org/cc/Distribution" />
        <cc:requires
           rdf:resource="http://web.resource.org/cc/Notice" />
        <cc:permits
           rdf:resource="http://web.resource.org/cc/DerivativeWorks" />
        <cc:requires
           rdf:resource="http://web.resource.org/cc/ShareAlike" />
        <cc:requires
           rdf:resource="http://web.resource.org/cc/SourceCode" />
      </cc:License>
    </rdf:RDF>
  </metadata>
  <defs
     id="defs29"><inkscape:perspective
   sodipodi:type="inkscape:persp3d"
   inkscape:vp_x="0 : 381.5 : 1"
   inkscape:vp_y="0 : 1000 : 0"
   inkscape:vp_z="603 : 381.5 : 1"
   inkscape:persp3d-origin="301.5 : 254.33333 : 1"
   id="perspective28" />
<linearGradient
   id="linearGradient2893">
  <stop
     style="stop-color:#ffffff;stop-opacity:0.3137255;"
     offset="0"
     id="stop2895" />
  <stop
     id="stop2897"
     offset="0.19"
     style="stop-color:#ffffff;stop-opacity:0.25098041;" />
  <stop
     style="stop-color:#6b6b6b;stop-opacity:0.1254902;"
     offset="0.60000002"
     id="stop2901" />
  <stop
     style="stop-color:#000000;stop-opacity:0.1254902;"
     offset="1"
     id="stop2899" />
</linearGradient>
<linearGradient
   id="linearGradient2955">
  <stop
     style="stop-color:white;stop-opacity:0;"
     offset="0"
     id="stop2965" />
  <stop
     style="stop-color:black;stop-opacity:0.64583331;"
     offset="1"
     id="stop2959" />
</linearGradient>
<radialGradient
   inkscape:collect="always"
   xlink:href="#linearGradient2893"
   id="radialGradient3236"
   gradientUnits="userSpaceOnUse"
   gradientTransform="matrix(1.215027,1.531577e-24,1.464684e-23,1.266667,-839.1924,-490.4894)"
   cx="858.04236"
   cy="579.93323"
   fx="858.04236"
   fy="579.93323"
   r="300" />
<inkscape:perspective
   id="perspective2559"
   inkscape:persp3d-origin="306 : 264 : 1"
   inkscape:vp_z="612 : 396 : 1"
   inkscape:vp_y="0 : 1000 : 0"
   inkscape:vp_x="0 : 396 : 1"
   sodipodi:type="inkscape:persp3d" />

	
	
	

	
	

		
		
		
	
		
		
		
	
			
			
			
			
		
			
			
		
				
				
			
				
				
				
				
			
				
				
			</defs>
  <sodipodi:namedview
     inkscape:window-height="691"
     inkscape:window-width="939"
     inkscape:pageshadow="2"
     inkscape:pageopacity="0.0"
     guidetolerance="10.0"
     gridtolerance="10.0"
     objecttolerance="10.0"
     borderopacity="1.0"
     bordercolor="#666666"
     pagecolor="#ffffff"
     id="base"
     inkscape:zoom="0.47986706"
     inkscape:cx="355.78281"
     inkscape:cy="323.04206"
     inkscape:window-x="1314"
     inkscape:window-y="125"
     inkscape:current-layer="layer2"
     showgrid="false"
     showguides="true"
     inkscape:guide-bbox="true">
    <sodipodi:guide
       orientation="horizontal"
       position="761.5"
       id="guide1885" />
    <sodipodi:guide
       orientation="vertical"
       position="1.5"
       id="guide1887" />
    <sodipodi:guide
       orientation="horizontal"
       position="1.5"
       id="guide1889" />
    <sodipodi:guide
       orientation="vertical"
       position="601.5"
       id="guide1891" />
    <sodipodi:guide
       orientation="vertical"
       position="301.50081"
       id="guide1893" />
  </sodipodi:namedview>
  <desc
     id="desc22">Coat of Arms of Canton of Freiburg (Fribourg)</desc>
  <g
     inkscape:groupmode="layer"
     id="layer1"
     inkscape:label="Fond écu"
     style="opacity:1;display:inline"
     sodipodi:insensitive="true">
    <path
       id="path1899"
       d="M 1.5,1.49998 L 1.5,460.3679 C 1.5,626.6785 135.81456,761.5 301.49999,761.5 C 467.18543,761.5 601.5,626.6785 601.5,460.3679 L 601.5,1.49998 L 1.5,1.49998 z"
       style="fill:#e20909;fill-opacity:1" />
    <path
       id="path2504"
       d="M 301.5008,761.5 C 467.1868,761.5 601.5008,626.679 601.5008,460.368 L 601.5008,1.5 L 301.5008,1.5 L 301.5008,761.5 z"
       style="opacity:1;fill:#fcef3c" />
  </g>
  <g
     inkscape:groupmode="layer"
     id="layer2"
     inkscape:label="Meubles"
     style="opacity:1;display:inline"
     sodipodi:insensitive="true">
    <path
       style="fill:#ffffff;stroke:#000000;stroke-width:3;stroke-linecap:round;stroke-linejoin:round"
       d="M 151.5008,125.688 L 127.2688,148.965 C 129.9238,190.417 137.8148,556.468 139.7688,585.165 C 141.7248,613.863 148.3728,623.748 151.5008,623.748 C 154.6298,623.748 161.2778,613.863 163.2328,585.165 C 165.1878,556.468 173.0778,190.416 175.7328,148.965 L 151.5008,125.688 z"
       id="path2510" />
    <path
       style="fill:#ffffff;stroke:#000000;stroke-width:3;stroke-linecap:round;stroke-linejoin:round"
       d="M 151.5008,82.004 C 130.4558,82.004 125.6728,85.193 125.6728,107.513 C 125.6728,107.513 112.9188,111.977 112.9188,126.645 C 112.9188,141.313 128.2238,148.965 128.2238,148.965 L 176.3718,148.965 C 176.3718,148.965 187.8508,143.166 187.8508,125.688 C 187.8508,112.296 173.5018,107.194 173.5018,107.194 C 173.5018,107.194 182.1728,97.035 175.7338,88.062 C 171.0428,81.524 159.4738,82.004 151.5008,82.004 z"
       id="path2512" />
    <path
       style="fill:none;stroke:#000000;stroke-width:3;stroke-linecap:round;stroke-linejoin:round"
       d="M 157.8778,374.08 C 157.8778,338.368 164.5018,271.308 172.6688,240.109"
       id="path2514" />
    <line
       id="line2516"
       y2="761.5"
       x2="301.50082"
       y1="1.5"
       x1="301.50082"
       style="fill:none;stroke:#000000;stroke-width:3" />
    <path
       style="stroke:#fcef3c;stroke-width:3;stroke-linecap:round;stroke-linejoin:round"
       d="M 529.7308,608.761 C 529.7308,608.761 510.1728,585.379 502.0958,564.972 C 502.0958,564.972 515.5948,592.819 543.3358,603.66 C 543.3358,603.66 500.4318,542.862 500.4318,474.574 L 402.5718,474.574 C 402.5718,542.862 359.6678,603.66 359.6678,603.66 C 387.4088,592.819 400.9078,564.972 400.9078,564.972 C 392.8308,585.379 373.2728,608.761 373.2728,608.761 C 398.7628,601.751 413.7618,577.761 417.7818,567.628 C 409.8218,589.001 391.7668,609.399 391.7668,609.399 C 425.1408,599.409 436.1938,564.972 436.1938,564.972 C 431.9418,588.356 414.5108,612.163 414.5108,612.163 C 447.6728,600.684 451.5018,564.972 451.5018,564.972 C 451.5018,564.972 455.3298,600.684 488.4918,612.163 C 488.4918,612.163 471.0608,588.355 466.8088,564.972 C 466.8088,564.972 477.8618,599.409 511.2358,609.399 C 511.2358,609.399 493.1788,589.002 485.2218,567.628 C 489.2418,577.761 504.2408,601.751 529.7308,608.761 z"
       id="path2520" />
    <path
       style="stroke:#fcef3c;stroke-width:3;stroke-linecap:round;stroke-linejoin:round"
       d="M 477.6908,210.327 L 452.0878,199.829 L 452.0898,199.348 L 451.5018,199.589 L 450.9138,199.348 L 450.9148,199.829 L 425.3118,210.327 C 377.1458,253.48 355.4738,368.114 370.0648,414.894 C 384.0028,459.583 439.5478,524.582 451.5018,524.582 C 463.4538,524.582 518.9988,459.584 532.9378,414.894 C 547.5288,368.114 525.8578,253.48 477.6908,210.327 z"
       id="path2526" />
    <path
       style="fill:none;stroke:#fcef3c;stroke-width:3;stroke-linecap:round;stroke-linejoin:round"
       d="M 456.6018,316.685 C 456.6018,316.685 467.7618,347.296 454.0508,441.041"
       id="path2528" />
    <path
       style="stroke:#fcef3c;stroke-width:3;stroke-linecap:round;stroke-linejoin:round"
       d="M 395.7348,214.65 C 395.7348,214.65 343.5118,255.465 343.5118,322.213 C 343.5118,361.752 359.9818,401.778 371.6618,419.603 C 371.6618,419.603 353.2898,344.745 370.7218,292.027 C 388.1538,239.309 403.7018,232.081 395.7348,214.65 z"
       id="path2530" />
    <path
       style="stroke:#fcef3c;stroke-width:3;stroke-linecap:round;stroke-linejoin:round"
       d="M 507.2698,214.65 C 507.2698,214.65 559.4938,255.465 559.4938,322.213 C 559.4938,361.752 543.0228,401.778 531.3428,419.603 C 531.3428,419.603 549.7148,344.745 532.2818,292.027 C 514.8508,239.309 499.3028,232.081 507.2698,214.65 z"
       id="path2532" />
    <path
       style="stroke:#fcef3c;stroke-width:3;stroke-linecap:round;stroke-linejoin:round"
       d="M 377.1848,427.92 C 377.1848,427.92 397.1158,405.843 421.6048,425.58 C 421.6048,425.58 414.3958,442.974 411.2138,467.727 L 405.2798,467.504 C 405.2798,467.504 402.3098,450.778 403.7938,431.153 C 403.7938,431.153 400.8258,450.109 399.9798,467.504 L 394.2528,467.504 C 394.2528,467.504 392.3448,451.222 392.3448,430.931 C 392.3448,430.931 389.3768,453.903 387.0448,467.504 L 381.5308,467.504 C 381.5308,467.505 380.6818,444.312 377.1848,427.92 z"
       id="path2536" />
    <path
       style="stroke:#fcef3c;stroke-width:3;stroke-linecap:round;stroke-linejoin:round"
       d="M 525.8198,427.92 C 525.8198,427.92 505.8888,405.843 481.3998,425.58 C 481.3998,425.58 488.6088,442.974 491.7908,467.727 L 497.7248,467.504 C 497.7248,467.504 500.6948,450.778 499.2108,431.153 C 499.2108,431.153 502.1788,450.109 503.0248,467.504 L 508.7518,467.504 C 508.7518,467.504 510.6598,451.222 510.6598,430.931 C 510.6598,430.931 513.6278,453.903 515.9598,467.504 L 521.4738,467.504 C 521.4738,467.505 522.3228,444.312 525.8198,427.92 z"
       id="path2538" />
    <path
       id="path2542"
       d="M 497.1018,111.021 C 482.1158,117.398 476.0578,107.195 451.5028,107.195 C 426.9468,107.195 420.8898,117.398 405.9028,111.021 C 390.9168,104.644 370.8278,101.774 361.8998,120.268 C 361.8998,120.268 386.1328,118.673 392.9888,151.357 L 451.5028,167.14 L 510.0158,151.357 C 516.8708,118.673 541.1048,120.268 541.1048,120.268 C 532.1768,101.773 512.0888,104.643 497.1018,111.021 z"
       style="stroke:#fcef3c;stroke-width:3;stroke-linecap:round;stroke-linejoin:round" />
    <path
       style="stroke:#fcef3c;stroke-width:3;stroke-linecap:round;stroke-linejoin:round"
       d="M 491.3828,135.712 C 473.9498,135.712 458.8618,145.703 451.5028,160.263 C 444.1428,145.702 429.0558,135.712 411.6218,135.712 C 386.9528,135.712 366.9548,155.71 366.9548,180.38 C 366.9548,205.051 386.9528,225.049 411.6218,225.049 C 429.0558,225.049 444.1428,215.059 451.5028,200.498 C 458.8618,215.059 473.9498,225.049 491.3828,225.049 C 516.0518,225.049 536.0498,205.051 536.0498,180.38 C 536.0498,155.71 516.0518,135.712 491.3828,135.712 z"
       id="path2546" />
    <path
       style="fill:none;stroke:#fcef3c;stroke-width:5;stroke-linecap:round;stroke-linejoin:round"
       d="M 414.1928,159.759 C 405.8898,159.759 399.1588,166.49 399.1588,174.793 C 399.1588,183.096 405.8898,189.827 414.1928,189.827 C 422.4958,189.827 429.2268,183.096 429.2268,174.793 C 429.2268,166.49 422.4958,159.759 414.1928,159.759 z M 488.8118,159.759 C 480.5088,159.759 473.7788,166.49 473.7788,174.793 C 473.7788,183.096 480.5088,189.827 488.8118,189.827 C 497.1148,189.827 503.8458,183.096 503.8458,174.793 C 503.8458,166.49 497.1138,159.759 488.8118,159.759 z"
       id="path2548" />
    <path
       id="path2550"
       d="M 452.0658,199.348 C 450.6868,202.283 448.9988,205.042 447.0408,207.585 C 469.2678,225.716 461.0828,252.774 461.0828,252.774 C 461.0828,252.774 473.0638,246.27 473.0638,233.606 C 473.0638,212.425 455.4568,201.295 452.0658,199.348 z"
       style="stroke:#fcef3c;stroke-width:3;stroke-linecap:round;stroke-linejoin:round" />
    <path
       id="path2552"
       d="M 447.0408,207.585 C 445.0768,210.139 442.8448,212.475 440.3818,214.55 C 445.9238,242.84 462.1848,247.003 462.1848,247.003 L 462.1848,247.002 C 463.2778,238.063 462.9288,220.545 447.0408,207.585 z"
       style="stroke:#fcef3c;stroke-width:3;stroke-linecap:round;stroke-linejoin:round" />
  </g>
  <g
     inkscape:groupmode="layer"
     id="layer3"
     inkscape:label="Reflet final"
     style="display:inline"
     sodipodi:insensitive="true">
    <path
       style="fill:url(#radialGradient3236);fill-opacity:1"
       d="M 1.5,1.5 L 1.5,460.3679 C 1.5,626.67854 135.81454,761.5 301.49993,761.5 C 467.1854,761.5 601.5,626.67854 601.5,460.3679 L 601.5,1.5 L 1.5,1.5 z"
       id="path2346" />
  </g>
  <g
     inkscape:groupmode="layer"
     id="layer4"
     inkscape:label="Contour final"
     style="display:inline"
     sodipodi:insensitive="true">
    <path
       style="fill:none;fill-opacity:1;stroke:#000000;stroke-width:3;stroke-miterlimit:4;stroke-dasharray:none;stroke-opacity:1"
       d="M 1.5,1.5 L 1.5,460.36794 C 1.5,626.67854 135.81454,761.5 301.49993,761.5 C 467.1854,761.5 601.5,626.67854 601.5,460.36794 L 601.5,1.5 L 1.5,1.5 z"
       id="path3239" />
  </g>
</svg>

<?xml version="1.0" encoding="UTF-8"?>
<svg version="1.0" viewBox="0 0 603 763" xmlns="http://www.w3.org/2000/svg" xmlns:cc="http://creativecommons.org/ns#" xmlns:dc="http://purl.org/dc/elements/1.1/" xmlns:rdf="http://www.w3.org/1999/02/22-rdf-syntax-ns#" xmlns:xlink="http://www.w3.org/1999/xlink">
<metadata>
<rdf:RDF>
<cc:Work rdf:about="">
<dc:format>image/svg+xml</dc:format>
<dc:type rdf:resource="http://purl.org/dc/dcmitype/StillImage"/>
<dc:date>07-AUG-2006</dc:date>
<dc:creator>
<cc:Agent>
<dc:title>Jérôme BLUM (wagner51)</dc:title>
</cc:Agent>
</dc:creator>
<cc:license rdf:resource="http://creativecommons.org/licenses/GPL/2.0/"/>
<dc:coverage/>
<dc:description>Gabarit pour le Projet:Blasons de WIkipédia</dc:description>
<dc:subject>
<rdf:Bag>
<rdf:li>blason suisse modèle gabarit projet blasons</rdf:li>
</rdf:Bag>
</dc:subject>
<dc:language>fr</dc:language>
<dc:title>Gabrit d'un blason suisse</dc:title>
</cc:Work>
<cc:License rdf:about="http://creativecommons.org/licenses/GPL/2.0/">
<cc:permits rdf:resource="http://web.resource.org/cc/Reproduction"/>
<cc:permits rdf:resource="http://web.resource.org/cc/Distribution"/>
<cc:requires rdf:resource="http://web.resource.org/cc/Notice"/>
<cc:permits rdf:resource="http://web.resource.org/cc/DerivativeWorks"/>
<cc:requires rdf:resource="http://web.resource.org/cc/ShareAlike"/>
<cc:requires rdf:resource="http://web.resource.org/cc/SourceCode"/>
</cc:License>
</rdf:RDF>
</metadata>
<defs>
<radialGradient id="a" cx="858.04" cy="579.93" r="300" gradientTransform="matrix(1.215 1.5316e-24 1.4647e-23 1.2667 -839.19 -490.49)" gradientUnits="userSpaceOnUse">
<stop stop-color="#fff" stop-opacity=".31373" offset="0"/>
<stop stop-color="#fff" stop-opacity=".25098" offset=".19"/>
<stop stop-color="#6b6b6b" stop-opacity=".12549" offset=".6"/>
<stop stop-opacity=".12549" offset="1"/>
</radialGradient>
</defs>
<desc>Coat of Arms of Canton of Freiburg (Fribourg)</desc>
<g>
<path d="m1.5 1.5v458.87c0 166.31 134.31 301.13 300 301.13 165.69 0 300-134.82 300-301.13v-458.87h-600z" fill="#e20909"/>
<path d="m301.5 761.5c165.69 0 300-134.82 300-301.13v-458.87h-300v760z" fill="#fcef3c"/>
<path d="m151.5 125.69-24.232 23.277c2.655 41.452 10.546 407.5 12.5 436.2 1.956 28.698 8.604 38.583 11.732 38.583 3.129 0 9.777-9.885 11.732-38.583 1.955-28.697 9.845-394.75 12.5-436.2l-24.232-23.277z" fill="#fff" stroke="#000" stroke-linecap="round" stroke-linejoin="round" stroke-width="3"/>
<path d="m151.5 82.004c-21.045 0-25.828 3.189-25.828 25.509 0 0-12.754 4.464-12.754 19.132s15.305 22.32 15.305 22.32h48.148s11.479-5.799 11.479-23.277c0-13.392-14.349-18.494-14.349-18.494s8.671-10.159 2.232-19.132c-4.691-6.538-16.26-6.058-24.233-6.058z" fill="#fff" stroke="#000" stroke-linecap="round" stroke-linejoin="round" stroke-width="3"/>
<path d="m157.88 374.08c0-35.712 6.624-102.77 14.791-133.97" fill="none" stroke="#000" stroke-linecap="round" stroke-linejoin="round" stroke-width="3"/>
<line x1="301.5" x2="301.5" y1="1.5" y2="761.5" fill="none" stroke="#000" stroke-width="3"/>
<path d="m529.73 608.76s-19.558-23.382-27.635-43.789c0 0 13.499 27.847 41.24 38.688 0 0-42.904-60.798-42.904-129.09h-97.86c0 68.288-42.904 129.09-42.904 129.09 27.741-10.841 41.24-38.688 41.24-38.688-8.077 20.407-27.635 43.789-27.635 43.789 25.49-7.01 40.489-31 44.509-41.133-7.96 21.373-26.015 41.771-26.015 41.771 33.374-9.99 44.427-44.427 44.427-44.427-4.252 23.384-21.683 47.191-21.683 47.191 33.162-11.479 36.991-47.191 36.991-47.191s3.828 35.712 36.99 47.191c0 0-17.431-23.808-21.683-47.191 0 0 11.053 34.437 44.427 44.427 0 0-18.057-20.397-26.014-41.771 4.02 10.133 19.019 34.123 44.509 41.133z" stroke="#fcef3c" stroke-linecap="round" stroke-linejoin="round" stroke-width="3"/>
<path d="m477.69 210.33-25.603-10.498 2e-3 -0.481-0.588 0.241-0.588-0.241 1e-3 0.481-25.603 10.498c-48.166 43.153-69.838 157.79-55.247 204.57 13.938 44.689 69.483 109.69 81.437 109.69 11.952 0 67.497-64.998 81.436-109.69 14.591-46.78-7.08-161.41-55.247-204.57z" stroke="#fcef3c" stroke-linecap="round" stroke-linejoin="round" stroke-width="3"/>
<path d="m456.6 316.68s11.16 30.611-2.551 124.36" fill="none" stroke="#fcef3c" stroke-linecap="round" stroke-linejoin="round" stroke-width="3"/>
<path d="m395.73 214.65s-52.223 40.815-52.223 107.56c0 39.539 16.47 79.565 28.15 97.39 0 0-18.372-74.858-0.94-127.58s32.98-59.946 25.013-77.377z" stroke="#fcef3c" stroke-linecap="round" stroke-linejoin="round" stroke-width="3"/>
<path d="m507.27 214.65s52.224 40.815 52.224 107.56c0 39.539-16.471 79.565-28.151 97.39 0 0 18.372-74.858 0.939-127.58-17.431-52.718-32.979-59.946-25.012-77.377z" stroke="#fcef3c" stroke-linecap="round" stroke-linejoin="round" stroke-width="3"/>
<path d="m377.18 427.92s19.931-22.077 44.42-2.34c0 0-7.209 17.394-10.391 42.147l-5.934-0.223s-2.97-16.726-1.486-36.351c0 0-2.968 18.956-3.814 36.351h-5.727s-1.908-16.282-1.908-36.573c0 0-2.968 22.972-5.3 36.573h-5.514c0 1e-3 -0.849-23.192-4.346-39.584z" stroke="#fcef3c" stroke-linecap="round" stroke-linejoin="round" stroke-width="3"/>
<path d="m525.82 427.92s-19.931-22.077-44.42-2.34c0 0 7.209 17.394 10.391 42.147l5.934-0.223s2.97-16.726 1.486-36.351c0 0 2.968 18.956 3.814 36.351h5.727s1.908-16.282 1.908-36.573c0 0 2.968 22.972 5.3 36.573h5.514c0 1e-3 0.849-23.192 4.346-39.584z" stroke="#fcef3c" stroke-linecap="round" stroke-linejoin="round" stroke-width="3"/>
<path d="m497.1 111.02c-14.986 6.377-21.044-3.826-45.599-3.826-24.556 0-30.613 10.203-45.6 3.826-14.986-6.377-35.075-9.247-44.003 9.247 0 0 24.233-1.595 31.089 31.089l58.514 15.783 58.513-15.783c6.855-32.684 31.089-31.089 31.089-31.089-8.928-18.495-29.016-15.625-44.003-9.247z" stroke="#fcef3c" stroke-linecap="round" stroke-linejoin="round" stroke-width="3"/>
<path d="m491.38 135.71c-17.433 0-32.521 9.991-39.88 24.551-7.36-14.561-22.447-24.551-39.881-24.551-24.669 0-44.667 19.998-44.667 44.668 0 24.671 19.998 44.669 44.667 44.669 17.434 0 32.521-9.99 39.881-24.551 7.359 14.561 22.447 24.551 39.88 24.551 24.669 0 44.667-19.998 44.667-44.669 0-24.67-19.998-44.668-44.667-44.668z" stroke="#fcef3c" stroke-linecap="round" stroke-linejoin="round" stroke-width="3"/>
<path d="m414.19 159.76c-8.303 0-15.034 6.731-15.034 15.034s6.731 15.034 15.034 15.034 15.034-6.731 15.034-15.034-6.731-15.034-15.034-15.034zm74.619 0c-8.303 0-15.033 6.731-15.033 15.034s6.73 15.034 15.033 15.034 15.034-6.731 15.034-15.034-6.732-15.034-15.034-15.034z" fill="none" stroke="#fcef3c" stroke-linecap="round" stroke-linejoin="round" stroke-width="5"/>
<path d="m452.07 199.35c-1.379 2.935-3.067 5.694-5.025 8.237 22.227 18.131 14.042 45.189 14.042 45.189s11.981-6.504 11.981-19.168c0-21.181-17.607-32.311-20.998-34.258z" stroke="#fcef3c" stroke-linecap="round" stroke-linejoin="round" stroke-width="3"/>
<path d="m447.04 207.58c-1.964 2.554-4.196 4.89-6.659 6.965 5.542 28.29 21.803 32.453 21.803 32.453v-1e-3c1.093-8.939 0.744-26.457-15.144-39.417z" stroke="#fcef3c" stroke-linecap="round" stroke-linejoin="round" stroke-width="3"/>
</g>
<g>
<path d="m1.5 1.5v458.87c0 166.31 134.31 301.13 300 301.13 165.69 0 300-134.82 300-301.13v-458.87h-600z" fill="url(#a)"/>
<path d="m1.5 1.5v458.87c0 166.31 134.31 301.13 300 301.13 165.69 0 300-134.82 300-301.13v-458.87h-600z" fill="none" stroke="#000" stroke-width="3"/>
</g>
</svg>
